X:1
T:Black Chimney Sweeper
M:2/4
L:1/8
K:G
 D/2| G3/2 G/2 G3/2 A/2| G2 B,3/2 C/2| D2 E3/2 C/2| D2 G3/2 G/2| A2 A3/2 A/2|\
 A2 B3/2 A/2| G2 A3/2 A/2| G D2 G| B2 B3/2 c/2| d2 G3/2 G/2| A2 A3/2 G/2|\
 F D2 D| E2 E3/2 E/2| E2 F3/2 G/2| A3/2 A/2 B3/2 A/2| G/2 F3/2 E3/2 D/2|\
 G2 GG| B,D ED| A2 AF| D G2 z/2|

